actions/32/system-lock-screen.svg

<?xml version="1.0" encoding="UTF-8" standalone="no"?>
<!-- Created with Inkscape (http://www.inkscape.org/) -->

<svg
   xmlns:svg="http://www.w3.org/2000/svg"
   xmlns="http://www.w3.org/2000/svg"
   xmlns:xlink="http://www.w3.org/1999/xlink"
   version="1.0"
   width="32"
   height="32"
   id="svg2563">
  <defs
     id="defs2565">
    <linearGradient
       id="linearGradient10691">
      <stop
         id="stop10693"
         style="stop-color:black;stop-opacity:1"
         offset="0" />
      <stop
         id="stop10695"
         style="stop-color:black;stop-opacity:0"
         offset="1" />
    </linearGradient>
    <radialGradient
       cx="6.702713"
       cy="73.615715"
       r="7.228416"
       fx="6.702713"
       fy="73.615715"
       id="radialGradient2560"
       xlink:href="#linearGradient10691"
       gradientUnits="userSpaceOnUse"
       gradientTransform="matrix(1.521772,0,0,0.4842001,5.7999999,-7.144735)" />
    <linearGradient
       id="linearGradient3406">
      <stop
         id="stop3408"
         style="stop-color:gray;stop-opacity:1"
         offset="0" />
      <stop
         id="stop3414"
         style="stop-color:gray;stop-opacity:1"
         offset="0.30009115" />
      <stop
         id="stop3416"
         style="stop-color:#969696;stop-opacity:1"
         offset="0.4148587" />
      <stop
         id="stop3410"
         style="stop-color:#969696;stop-opacity:1"
         offset="1" />
    </linearGradient>
    <linearGradient
       x1="24.000002"
       y1="45"
       x2="24.000002"
       y2="37.974422"
       id="linearGradient2557"
       xlink:href="#linearGradient3406"
       gradientUnits="userSpaceOnUse"
       gradientTransform="matrix(0.6521739,0,0,0.7,0.3478258,-0.6499977)" />
    <linearGradient
       id="linearGradient3418">
      <stop
         id="stop3420"
         style="stop-color:#aaa;stop-opacity:1"
         offset="0" />
      <stop
         id="stop3426"
         style="stop-color:#b3b3b3;stop-opacity:1"
         offset="0.26436639" />
      <stop
         id="stop3428"
         style="stop-color:#bebebe;stop-opacity:1"
         offset="0.39481503" />
      <stop
         id="stop3422"
         style="stop-color:#b3b3b3;stop-opacity:1"
         offset="1" />
    </linearGradient>
    <linearGradient
       x1="26.870913"
       y1="45"
       x2="26.746988"
       y2="36.943203"
       id="linearGradient2555"
       xlink:href="#linearGradient3418"
       gradientUnits="userSpaceOnUse"
       gradientTransform="matrix(0.6521739,0,0,0.7,0.3478258,-0.6499977)" />
    <linearGradient
       id="linearGradient3269">
      <stop
         id="stop3271"
         style="stop-color:white;stop-opacity:1"
         offset="0" />
      <stop
         id="stop3273"
         style="stop-color:white;stop-opacity:0"
         offset="1" />
    </linearGradient>
    <linearGradient
       x1="19.283365"
       y1="42.361061"
       x2="19.283365"
       y2="34.020142"
       id="linearGradient2552"
       xlink:href="#linearGradient3269"
       gradientUnits="userSpaceOnUse"
       gradientTransform="matrix(0.5661698,0,0,0.5024297,2.4119239,7.1564579)" />
    <linearGradient
       id="linearGradient2327">
      <stop
         id="stop2329"
         style="stop-color:white;stop-opacity:1"
         offset="0" />
      <stop
         id="stop2331"
         style="stop-color:#ccc;stop-opacity:1"
         offset="1" />
    </linearGradient>
    <linearGradient
       x1="32.733955"
       y1="2.459708"
       x2="32.733955"
       y2="34.723625"
       id="linearGradient2548"
       xlink:href="#linearGradient2327"
       gradientUnits="userSpaceOnUse"
       gradientTransform="matrix(0.6462817,0,0,0.6514695,0.4247344,0.382208)" />
  </defs>
  <g
     id="layer1">
    <path
       d="M 27,28.5 C 27,30.432997 22.075132,32 16,32 9.9248673,32 4.9999999,30.432997 4.9999999,28.5 4.9999999,26.567003 9.9248673,25 16,25 c 6.075132,0 11,1.567003 11,3.5 z"
       id="path2883"
       style="opacity:0.4;fill:url(#radialGradient2560);fill-opacity:1;fill-rule:nonzero;stroke:none;stroke-width:0.80000001;marker:none;visibility:visible;display:inline;overflow:visible" />
    <path
       d="m 9.467037,24.204783 c 0,0 -0.9439761,4.198091 -0.9439761,4.478522 0,0.264894 -0.2124085,1.816694 0.6520598,1.816694 0.8493413,0 13.1563073,0 13.8159363,0 0.66087,0 0.449502,-1.860977 0.506767,-2.008791 C 23.553209,28.348249 22.53283,24.2 22.53283,24.2 L 9.467037,24.2048 z"
       id="path2170"
       style="fill:url(#linearGradient2555);fill-opacity:1;fill-rule:evenodd;stroke:url(#linearGradient2557);stroke-width:1;stroke-linecap:round;stroke-linejoin:round;stroke-miterlimit:4;stroke-opacity:1;stroke-dasharray:none" />
    <path
       d="m 10.338302,24.503249 c 0,0 -0.6257769,2.988149 -0.7691699,3.453075 -0.1424181,0.46176 -0.1107996,0.543675 0.5417539,0.543675 0.63938,0 11.339238,0 11.85626,0 0.53003,0 0.587883,-0.163576 0.498346,-0.548902 -0.08755,-0.376782 -0.803796,-3.451098 -0.803796,-3.451098 l -11.323394,0.0033 z"
       id="path2186"
       style="opacity:0.4;fill:none;stroke:url(#linearGradient2552);stroke-width:0.99999988;stroke-linecap:round;stroke-linejoin:round;stroke-miterlimit:4;stroke-opacity:1;stroke-dasharray:none" />
    <path
       d="m 1.1437212,2.9506181e-4 c 9.9041858,0 19.8083728,0 29.7125578,0 C 31.96043,-0.0088611 32.054776,1.2126089 31.980901,2.0553816 c 0,7.2602749 -3e-6,14.5205504 -3e-6,21.7808244 0.009,1.123532 -1.191403,1.21953 -2.019642,1.14436 -9.605847,0 -19.21169,0 -28.8175348,0 -1.10415269,0.0092 -1.19849705,-1.212314 -1.12462198,-2.055087 0,-7.260277 0,-14.5205517 0,-21.7808268 C 0.00450138,0.52953068 0.5390027,-0.01450844 1.1437212,2.9506181e-4 z"
       id="rect3170"
       style="fill:#1a1a1a;fill-opacity:1;fill-rule:evenodd;stroke:none;stroke-width:1.00396323;marker:none;visibility:visible;display:inline;overflow:visible;enable-background:accumulate" />
    <path
       d="m 2,2 c 9.333335,0 18.666668,0 28,0 0,6.999999 0,13.999999 0,21 C 20.666668,23 11.333335,23 2,23 2,15.999999 2,8.999999 2,2 z"
       id="rect4151"
       style="fill:url(#linearGradient2548);fill-opacity:1;fill-rule:evenodd;stroke:none;stroke-width:1.00280893;marker:none;visibility:visible;display:inline;overflow:visible;enable-background:accumulate" />
    <path
       d="m 15.625003,5.0022182 c -2.570792,0.082587 -4.274998,1.3501349 -4.274998,3.9645539 l 0,2.6684519 -0.578577,0 c -0.424514,0 -0.7714282,0.299815 -0.7714282,0.675281 l 0,7.014213 c 0,0.375469 0.3469142,0.675284 0.7714282,0.675282 L 21.23928,20 C 21.663802,20 22,19.700187 22,19.324718 l 0,-7.014213 c 0,-0.375466 -0.336198,-0.675281 -0.76072,-0.675281 l -0.589285,0 0.01072,-2.6248844 c 0,-2.7752646 -1.850015,-3.973868 -4.649995,-4.0081214 -0.130542,-0.00161 -0.259282,-0.00406 -0.385714,0 z m 0.25714,1.7535512 c 0.04727,-0.00109 0.10112,0 0.15,0 3.106637,0 2.86841,2.2656287 2.914284,2.9407425 l 0,1.9387121 -5.85,0 0,-1.9278207 C 13.085399,9.0376499 12.903995,6.8246597 15.882143,6.7557694 z"
       id="path2086"
       style="opacity:0.69886361;fill:#888a85;fill-opacity:1;fill-rule:nonzero;stroke:none;stroke-width:1;marker:none;visibility:visible;display:block;overflow:visible" />
  </g>
</svg>

<?xml version="1.0" encoding="UTF-8" standalone="no"?>
<!-- Created with Inkscape (http://www.inkscape.org/) -->
<svg
   xmlns:svg="http://www.w3.org/2000/svg"
   xmlns="http://www.w3.org/2000/svg"
   xmlns:xlink="http://www.w3.org/1999/xlink"
   version="1.0"
   width="32"
   height="32"
   id="svg2563">
  <defs
     id="defs2565">
    <linearGradient
       id="linearGradient10691">
      <stop
         id="stop10693"
         style="stop-color:#000000;stop-opacity:1"
         offset="0" />
      <stop
         id="stop10695"
         style="stop-color:#000000;stop-opacity:0"
         offset="1" />
    </linearGradient>
    <radialGradient
       cx="6.702713"
       cy="73.615715"
       r="7.228416"
       fx="6.702713"
       fy="73.615715"
       id="radialGradient2560"
       xlink:href="#linearGradient10691"
       gradientUnits="userSpaceOnUse"
       gradientTransform="matrix(1.521772,0,0,0.4842001,5.7999999,-7.144735)" />
    <linearGradient
       id="linearGradient3406">
      <stop
         id="stop3408"
         style="stop-color:#808080;stop-opacity:1"
         offset="0" />
      <stop
         id="stop3414"
         style="stop-color:#808080;stop-opacity:1"
         offset="0.30009115" />
      <stop
         id="stop3416"
         style="stop-color:#969696;stop-opacity:1"
         offset="0.4148587" />
      <stop
         id="stop3410"
         style="stop-color:#969696;stop-opacity:1"
         offset="1" />
    </linearGradient>
    <linearGradient
       x1="24.000002"
       y1="45"
       x2="24.000002"
       y2="37.974422"
       id="linearGradient2557"
       xlink:href="#linearGradient3406"
       gradientUnits="userSpaceOnUse"
       gradientTransform="matrix(0.6521739,0,0,0.7,0.3478258,-0.6499977)" />
    <linearGradient
       id="linearGradient3418">
      <stop
         id="stop3420"
         style="stop-color:#aaaaaa;stop-opacity:1"
         offset="0" />
      <stop
         id="stop3426"
         style="stop-color:#b3b3b3;stop-opacity:1"
         offset="0.26436639" />
      <stop
         id="stop3428"
         style="stop-color:#bebebe;stop-opacity:1"
         offset="0.39481503" />
      <stop
         id="stop3422"
         style="stop-color:#b3b3b3;stop-opacity:1"
         offset="1" />
    </linearGradient>
    <linearGradient
       x1="26.870913"
       y1="45"
       x2="26.746988"
       y2="36.943203"
       id="linearGradient2555"
       xlink:href="#linearGradient3418"
       gradientUnits="userSpaceOnUse"
       gradientTransform="matrix(0.6521739,0,0,0.7,0.3478258,-0.6499977)" />
    <linearGradient
       id="linearGradient3269">
      <stop
         id="stop3271"
         style="stop-color:#ffffff;stop-opacity:1"
         offset="0" />
      <stop
         id="stop3273"
         style="stop-color:#ffffff;stop-opacity:0"
         offset="1" />
    </linearGradient>
    <linearGradient
       x1="19.283365"
       y1="42.361061"
       x2="19.283365"
       y2="34.020142"
       id="linearGradient2552"
       xlink:href="#linearGradient3269"
       gradientUnits="userSpaceOnUse"
       gradientTransform="matrix(0.5661698,0,0,0.5024297,2.4119239,7.1564579)" />
    <linearGradient
       id="linearGradient2327">
      <stop
         id="stop2329"
         style="stop-color:#ffffff;stop-opacity:1"
         offset="0" />
      <stop
         id="stop2331"
         style="stop-color:#cccccc;stop-opacity:1"
         offset="1" />
    </linearGradient>
    <linearGradient
       x1="32.733955"
       y1="2.459708"
       x2="32.733955"
       y2="34.723625"
       id="linearGradient2548"
       xlink:href="#linearGradient2327"
       gradientUnits="userSpaceOnUse"
       gradientTransform="matrix(0.6462817,0,0,0.6514695,0.4247344,0.382208)" />
  </defs>
  <g
     id="layer1">
    <path
       d="M 27,28.5 C 27,30.432997 22.075132,32 16,32 C 9.9248673,32 4.9999999,30.432997 4.9999999,28.5 C 4.9999999,26.567003 9.9248673,25 16,25 C 22.075132,25 27,26.567003 27,28.5 z"
       id="path2883"
       style="opacity:0.4;fill:url(#radialGradient2560);fill-opacity:1;fill-rule:nonzero;stroke:none;stroke-width:0.80000001;stroke-linecap:butt;stroke-linejoin:miter;marker:none;marker-start:none;marker-mid:none;marker-end:none;stroke-miterlimit:4;stroke-dashoffset:0;stroke-opacity:1;visibility:visible;display:inline;overflow:visible" />
    <path
       d="M 9.467037,24.204783 C 9.467037,24.204783 8.5230609,28.402874 8.5230609,28.683305 C 8.5230609,28.948199 8.3106524,30.499999 9.1751207,30.499999 C 10.024462,30.499999 22.331428,30.499999 22.991057,30.499999 C 23.651927,30.499999 23.440559,28.639022 23.497824,28.491208 C 23.553209,28.348249 22.53283,24.2 22.53283,24.2 L 9.467037,24.204783 z"
       id="path2170"
       style="fill:url(#linearGradient2555);fill-opacity:1;fill-rule:evenodd;stroke:url(#linearGradient2557);stroke-width:1;stroke-linecap:round;stroke-linejoin:round;stroke-miterlimit:4;stroke-dasharray:none;stroke-opacity:1" />
    <path
       d="M 10.338302,24.503249 C 10.338302,24.503249 9.7125251,27.491398 9.5691321,27.956324 C 9.426714,28.418084 9.4583325,28.499999 10.110886,28.499999 C 10.750266,28.499999 21.450124,28.499999 21.967146,28.499999 C 22.497176,28.499999 22.555029,28.336423 22.465492,27.951097 C 22.37794,27.574315 21.661696,24.499999 21.661696,24.499999 L 10.338302,24.503249 z"
       id="path2186"
       style="opacity:0.4;fill:none;fill-opacity:1;fill-rule:evenodd;stroke:url(#linearGradient2552);stroke-width:0.99999988;stroke-linecap:round;stroke-linejoin:round;stroke-miterlimit:4;stroke-dasharray:none;stroke-opacity:1" />
    <path
       d="M 1.1437212,0.00029506181 C 11.047907,0.00029506181 20.952094,0.00029506181 30.856279,0.00029506181 C 31.96043,-0.0088611048 32.054776,1.2126089 31.980901,2.0553816 C 31.980901,9.3156565 31.980898,16.575932 31.980898,23.836206 C 31.9899,24.959738 30.789495,25.055736 29.961256,24.980566 C 20.355409,24.980566 10.749566,24.980566 1.1437212,24.980566 C 0.03956851,24.989722 -0.054775855,23.768252 0.019099217,22.925479 C 0.019099217,15.665202 0.019099217,8.4049273 0.019099217,1.1446522 C 0.0045013755,0.52953068 0.5390027,-0.014508438 1.1437212,0.00029506181 z"
       id="rect3170"
       style="fill:#1a1a1a;fill-opacity:1;fill-rule:evenodd;stroke:none;stroke-width:1.00396323;stroke-linecap:round;stroke-linejoin:round;marker:none;marker-start:none;marker-mid:none;marker-end:none;stroke-miterlimit:4;stroke-dasharray:none;stroke-dashoffset:0;stroke-opacity:1;visibility:visible;display:inline;overflow:visible;enable-background:accumulate" />
    <path
       d="M 2,2 C 11.333335,2 20.666668,2 30,2 C 30,8.999999 30,15.999999 30,23 C 20.666668,23 11.333335,23 2,23 C 2,15.999999 2,8.999999 2,2 z"
       id="rect4151"
       style="fill:url(#linearGradient2548);fill-opacity:1;fill-rule:evenodd;stroke:none;stroke-width:1.00280893;stroke-linecap:round;stroke-linejoin:round;marker:none;marker-start:none;marker-mid:none;marker-end:none;stroke-miterlimit:4;stroke-dasharray:none;stroke-dashoffset:0;stroke-opacity:1;visibility:visible;display:inline;overflow:visible;enable-background:accumulate" />
    <path
       d="M 15.625003,5.0022182 C 13.054211,5.0848048 11.350005,6.3523531 11.350005,8.9667721 L 11.350005,11.635224 L 10.771428,11.635224 C 10.346914,11.635224 9.9999998,11.935039 9.9999998,12.310505 L 9.9999998,19.324718 C 9.9999998,19.700187 10.346914,20.000002 10.771428,20 L 21.23928,20 C 21.663802,20 22,19.700187 22,19.324718 L 22,12.310505 C 22,11.935039 21.663802,11.635224 21.23928,11.635224 L 20.649995,11.635224 L 20.660712,9.0103396 C 20.660712,6.235075 18.810697,5.0364716 16.010717,5.0022182 C 15.880175,5.0006116 15.751435,4.9981549 15.625003,5.0022182 z M 15.882143,6.7557694 C 15.929416,6.7546778 15.983263,6.7557694 16.032143,6.7557694 C 19.13878,6.7557694 18.900553,9.0213981 18.946427,9.6965119 L 18.946427,11.635224 L 13.096427,11.635224 L 13.096427,9.7074033 C 13.085399,9.0376499 12.903995,6.8246597 15.882143,6.7557694 z"
       id="path2086"
       style="opacity:0.69886361;fill:#888a85;fill-opacity:1;fill-rule:nonzero;stroke:none;stroke-width:1;stroke-linecap:butt;stroke-linejoin:miter;marker:none;marker-start:none;marker-mid:none;marker-end:none;stroke-miterlimit:4;stroke-dasharray:none;stroke-dashoffset:0;stroke-opacity:1;visibility:visible;display:block;overflow:visible" />
  </g>
</svg>
